src/images/sprites/svg/icon-adv-5.svg

<svg width="78" height="80" viewBox="0 0 78 80" fill="none" xmlns="http://www.w3.org/2000/svg">
<path d="M3.16126 8.63878H0V8.19769V7.75661L0.0878127 7.40374L0.175625 6.96265L0.263438 6.52157L0.351251 6.1687L0.526876 5.72761L0.702502 5.37474L0.790315 4.93365L1.05375 4.58079L1.22938 4.22792L1.405 3.87505L1.66844 3.6104L1.93188 3.25753L2.19532 2.90466L2.45876 2.64001L2.7222 2.37535L3.07345 2.1107L3.4247 1.84605L3.68814 1.5814L4.03939 1.40496L4.39064 1.22853L4.74189 0.963877L5.18095 0.87566L5.5322 0.699225L5.97127 0.522791L6.32252 0.434574L6.76158 0.346356L7.20065 0.258139L7.5519 0.169922H7.99096H8.43002V3.34574H8.16659H7.90315L7.63971 3.43396H7.37627L7.11283 3.52218L6.84939 3.6104L6.67377 3.69861L6.41033 3.78683L6.14689 3.87505L5.97127 3.96326L5.70783 4.1397L5.5322 4.22792L5.26876 4.40435L5.09314 4.58079L4.91751 4.75722L4.74189 4.93365L4.56626 5.11009L4.39064 5.28652L4.21501 5.46296L4.03939 5.72761L3.95157 5.90404L3.77595 6.1687L3.68814 6.34513L3.60032 6.60978L3.51251 6.87443L3.4247 7.05087L3.33688 7.31552L3.24907 7.58017V7.84482L3.16126 8.10948V8.37413V8.63878ZM0 65.8036V8.63878H3.16126V65.8036H0ZM7.02502 71.9788H3.86376L4.74189 73.3903L4.47845 73.2138L4.21501 73.1256L3.95157 72.9492L3.68814 72.7727L3.51251 72.5963L3.24907 72.5081L3.07345 72.2434L2.81001 72.067L2.63438 71.8906L2.37094 71.7141L2.19532 71.4495L2.01969 71.273L1.84407 71.0084L1.66844 70.832L1.49282 70.5673L1.31719 70.3027L1.14157 70.1262L1.05375 69.8616L0.878128 69.5969L0.790315 69.3323L0.614689 69.0676L0.526876 68.803L0.439064 68.4501L0.351251 68.1854L0.263438 67.9208L0.175625 67.6561V67.3033L0.0878127 67.0386V66.6857L0 66.4211V66.1564V65.8036H3.16126V65.98V66.1564V66.4211L3.24907 66.5975V66.774L3.33688 66.9504V67.1268L3.4247 67.3033V67.4797L3.51251 67.6561L3.60032 67.8326L3.68814 68.009V68.1854L3.77595 68.2737L3.86376 68.4501L3.95157 68.6265L4.1272 68.803L4.21501 68.8912L4.30282 69.0676L4.39064 69.1558L4.56626 69.3323L4.65408 69.5087L4.8297 69.5969L4.91751 69.6851L5.09314 69.8616L5.18095 69.9498L5.35658 70.038L5.5322 70.1262L5.62002 70.3027L5.79564 70.3909L5.97127 70.4791L6.14689 70.5673L7.02502 71.9788ZM6.14689 70.5673L7.02502 71.0084V71.9788L6.14689 70.5673ZM3.86376 75.1546V71.9788H7.02502V75.1546H3.86376ZM8.43002 76.6543V79.8301H8.2544L7.99096 79.7419H7.72752H7.5519L7.28846 79.6537L7.11283 79.5655H6.84939L6.67377 79.4772L6.41033 79.389L6.2347 79.2126L6.05908 79.1244L5.88345 79.0362L5.70783 78.8597L5.5322 78.7715L5.35658 78.5951L5.18095 78.4186L5.00533 78.2422L4.91751 78.154L4.74189 77.9775L4.65408 77.8011L4.47845 77.5365L4.39064 77.36L4.30282 77.1836L4.21501 77.0072L4.1272 76.7425L4.03939 76.5661L3.95157 76.3014V76.125L3.86376 75.8603V75.6839V75.4193V75.1546H7.02502V75.2428V75.331V75.4193V75.5075L7.11283 75.5957V75.6839V75.7721L7.20065 75.8603V75.9486H7.28846V76.0368L7.37627 76.125L7.46408 76.2132L7.5519 76.3014L7.63971 76.3896H7.72752V76.4779H7.81533H7.90315L7.99096 76.5661H8.07877H8.16659H8.2544H8.34221V76.6543H8.43002ZM9.92284 75.1546H13.0841V75.4193L12.9963 75.6839V75.8603V76.125L12.9085 76.3014L12.8207 76.5661V76.7425L12.7328 77.0072L12.645 77.1836L12.4694 77.36L12.3816 77.5365L12.2938 77.8011L12.1182 77.9775L12.0303 78.154L11.8547 78.2422L11.6791 78.4186L11.5913 78.5951L11.4157 78.7715L11.24 78.8597L11.0644 79.0362L10.801 79.1244L10.6253 79.2126L10.4497 79.389L10.2741 79.4772H10.0107L9.83503 79.5655L9.57159 79.6537L9.39596 79.7419H9.13253H8.9569L8.69346 79.8301H8.43002V76.6543H8.51784L8.60565 76.5661H8.69346H8.78127H8.86909H8.9569L9.04471 76.4779H9.13253L9.22034 76.3896L9.30815 76.3014H9.39596V76.2132H9.48378V76.125H9.57159V76.0368L9.6594 75.9486L9.74722 75.8603V75.7721L9.83503 75.6839V75.5957V75.5075V75.4193L9.92284 75.331V75.2428V75.1546ZM13.0841 71.9788V75.1546H9.92284V71.9788L10.801 70.5673L13.0841 71.9788ZM9.92284 71.9788V71.0084L10.801 70.5673L9.92284 71.9788ZM13.6988 65.8036H16.86V66.1564V66.4211V66.6857L16.7722 67.0386V67.3033L16.6844 67.6561L16.5966 67.9208L16.5088 68.1854L16.421 68.4501L16.3332 68.803L16.2454 69.0676L16.1575 69.3323L15.9819 69.5969L15.8941 69.8616L15.7185 70.1262L15.5429 70.3027L15.455 70.5673L15.2794 70.832L15.1038 71.0084L14.9282 71.273L14.6647 71.4495L14.4891 71.7141L14.3135 71.8906L14.05 72.067L13.8744 72.2434L13.611 72.4199L13.4354 72.5963L13.1719 72.7727L12.9085 72.9492L12.7328 73.1256L12.4694 73.2138L12.206 73.3903L10.801 70.5673L10.8888 70.4791L11.0644 70.3909L11.24 70.3027L11.4157 70.1262L11.5913 70.038L11.6791 69.9498L11.8547 69.8616L11.9425 69.6851L12.1182 69.5969L12.206 69.5087L12.3816 69.3323L12.4694 69.1558L12.5572 69.0676L12.7328 68.8912L12.8207 68.803L12.9085 68.6265L12.9963 68.4501L13.0841 68.2737L13.1719 68.1854L13.2597 68.009L13.3475 67.8326V67.6561L13.4354 67.4797L13.5232 67.3033V67.1268L13.611 66.9504V66.774L13.6988 66.5975V66.4211V66.1564V65.98V65.8036ZM16.86 8.63878V65.8036H13.6988V8.63878H16.86ZM6.84939 1.75783H10.0107L8.43002 0.169922H8.86909L9.30815 0.258139H9.74722L10.1863 0.346356L10.5375 0.434574L10.9766 0.522791L11.3278 0.699225L11.7669 0.87566L12.1182 0.963877L12.4694 1.22853L12.8207 1.40496L13.1719 1.5814L13.5232 1.84605L13.7866 2.1107L14.1379 2.37535L14.4013 2.64001L14.6647 2.99287L14.9282 3.25753L15.1916 3.6104L15.455 3.87505L15.6307 4.22792L15.8941 4.58079L16.0697 4.93365L16.2454 5.37474L16.421 5.72761L16.5088 6.1687L16.5966 6.52157L16.6844 6.96265L16.7722 7.40374L16.86 7.75661V8.19769V8.63878H13.6988V8.37413V8.10948V7.84482L13.611 7.58017L13.5232 7.31552V7.05087L13.4354 6.87443L13.3475 6.60978L13.1719 6.34513L13.0841 6.1687L12.9963 5.90404L12.8207 5.72761L12.645 5.46296L12.5572 5.28652L12.3816 5.11009L12.206 4.93365L12.0303 4.75722L11.7669 4.58079L11.5913 4.40435L11.4157 4.22792L11.1522 4.1397L10.9766 3.96326L10.7132 3.87505L10.5375 3.78683L10.2741 3.69861L10.0107 3.6104L9.74722 3.52218L9.48378 3.43396H9.22034L8.9569 3.34574H8.69346H8.43002L6.84939 1.75783ZM8.43002 3.34574H6.84939V1.75783L8.43002 3.34574ZM10.0107 1.75783H6.84939L8.43002 0.169922L10.0107 1.75783ZM8.43002 0.169922H10.0107V1.75783L8.43002 0.169922Z" fill="white"/>
<path d="M40.2183 8.10946H43.9064V4.49255H46.8042V8.10946H50.4045V10.756H46.8042V14.4611H43.9064V10.756H40.2183V8.10946Z" fill="white"/>
<path d="M62.2593 4.31611H57.0783L56.4636 6.87441C56.8149 6.7862 57.1661 6.7862 57.5174 6.7862C59.1858 6.7862 60.6787 7.40372 61.5568 8.28589C62.7862 9.60915 62.9618 11.1971 62.9618 12.0792C62.9618 13.7554 62.4349 15.0786 61.3812 16.2254C60.064 17.4605 58.7468 17.8134 57.0783 17.8134C56.2002 17.8134 54.883 17.7251 53.6536 17.1076C53.0389 16.843 52.3364 16.3137 51.8096 15.7844L52.7755 13.1378C53.2146 13.7554 53.7414 14.1964 54.4439 14.5493C55.1465 14.9904 55.9368 15.1668 56.7271 15.1668C57.9565 15.1668 58.659 14.6375 59.098 14.1964C59.5371 13.7554 59.8883 12.9614 59.8883 11.9028C59.8883 11.0206 59.6249 10.3149 59.0102 9.78558C58.2199 9.07985 57.254 8.99163 56.5515 8.99163C55.4099 8.99163 54.3561 9.25628 53.2146 9.96202L55.0586 1.75781H62.2593V4.31611Z" fill="white"/>
<path d="M11.1523 14.1965H15.2795V17.3723H11.1523V14.1965Z" fill="white"/>
<path d="M11.1523 27.8701H15.2795V31.1342H11.1523V27.8701Z" fill="white"/>
<path d="M11.1523 41.632H15.2795V44.8078H11.1523V41.632Z" fill="white"/>
<path d="M11.1523 55.3057H15.2795V58.5698H11.1523V55.3057Z" fill="white"/>
<path d="M6.93701 7.75659H15.2792V10.9324H6.93701V7.75659Z" fill="white"/>
<path d="M6.93701 62.1866H15.2792V65.3625H6.93701V62.1866Z" fill="white"/>
<path d="M6.93701 34.9276H15.2792V38.1034H6.93701V34.9276Z" fill="white"/>
<path d="M6.93701 48.6012H15.2792V51.777H6.93701V48.6012Z" fill="white"/>
<path d="M6.93701 21.342H15.2792V24.5179H6.93701V21.342Z" fill="white"/>
<path d="M28.9784 10.9324H18.9678V7.75659H28.9784V10.9324Z" fill="white"/>
<path d="M28.9784 65.3625H18.9678V62.1866H28.9784V65.3625Z" fill="white"/>
<path d="M68.7575 9.78563C68.7575 13.8436 70.426 15.3433 71.7432 15.3433C73.0604 15.3433 74.7288 13.8436 74.7288 9.78563C74.7288 5.63942 73.0604 4.13972 71.7432 4.13972C70.426 4.13972 68.7575 5.63942 68.7575 9.78563ZM65.6841 9.78563C65.6841 4.31616 68.5819 1.58142 71.7432 1.58142C74.8166 1.58142 77.7144 4.31616 77.7144 9.78563C77.7144 15.1669 74.8166 17.9898 71.7432 17.9898C68.5819 17.9898 65.6841 15.1669 65.6841 9.78563Z" fill="white"/>
<path d="M40.2183 62.1867H43.9064V58.5698H46.8042V62.1867H50.4045V64.8332H46.8042V68.5383H43.9064V64.8332H40.2183V62.1867Z" fill="white"/>
<path d="M56.9906 71.6259H60.064V55.3939H54.6196V58.1287H56.9906V71.6259Z" fill="white"/>
</svg>

<svg xmlns="http://www.w3.org/2000/svg" width="78" height="80" fill="none" viewBox="0 0 78 80">
	<path fill="#fff" d="M3.161 8.639H0v-.882l.088-.353.088-.441.087-.441.088-.353.176-.441.176-.353.087-.441.264-.353.175-.353.176-.353.263-.265.264-.352.263-.353.264-.265.263-.265.351-.264.352-.265.263-.265.351-.176.352-.176.35-.265.44-.088.351-.177.44-.176.35-.088.44-.089L7.2.258 7.55.17h.879v3.176h-.527l-.263.088h-.264l-.263.088-.264.088-.175.089-.264.088-.263.088-.176.088-.263.177-.176.088-.263.176-.176.177-.175.176-.176.177-.176.176-.175.177-.176.176-.176.265-.087.176-.176.265-.088.176-.088.265-.087.264-.088.177-.088.265-.088.264v.265l-.088.264v.53zM0 65.804V8.639h3.161v57.165H0zm7.025 6.175H3.864l.878 1.411-.264-.176-.263-.088-.263-.177-.264-.176-.175-.177-.264-.088-.176-.265-.263-.176-.176-.176-.263-.177-.176-.264-.175-.177-.176-.265-.176-.176-.175-.265-.176-.264-.175-.177-.088-.264-.176-.265-.088-.265-.175-.264-.088-.265-.088-.353-.088-.265-.088-.264-.087-.265v-.353l-.088-.264v-.353L0 66.42v-.617h3.161v.617l.088.176v.177l.088.176v.177l.088.176v.177l.088.176.087.177.088.176v.176l.088.089.088.176.088.176.175.177.088.088.088.177.088.088.175.176.088.177.176.088.088.088.175.177.088.088.176.088.175.088.088.177.176.088.175.088.176.088.878 1.412zm-.878-1.412.878.441v.97l-.878-1.41zm-2.283 4.588v-3.176h3.161v3.176H3.864zm4.566 1.5v3.175h-.176l-.263-.088h-.439l-.264-.088-.175-.088h-.264l-.175-.089-.264-.088-.175-.176-.176-.089-.176-.088-.175-.176-.176-.088-.175-.177-.176-.176-.176-.177-.087-.088-.176-.176-.088-.177-.176-.264-.087-.177-.088-.176-.088-.177-.088-.264-.088-.177-.087-.265v-.176l-.088-.265V75.155h3.161v.352l.088.089v.176l.088.088v.089h.087v.088l.088.088.088.088.088.088.088.089h.088v.088h.175l.088.088h.351v.088h.088zm1.493-1.5h3.161v.264l-.088.265v.441l-.088.176-.087.265v.177l-.088.264-.088.177-.176.176-.087.177-.088.264-.176.177-.088.176-.175.088-.176.177-.088.176-.175.177-.176.088-.176.176-.263.088-.176.089-.175.176-.176.088h-.263l-.176.088-.263.089-.176.088h-.439l-.264.088H8.43v-3.176h.088l.088-.088h.351l.088-.088h.088l.087-.088.088-.089h.088v-.088h.088v-.088h.088v-.088l.087-.088.088-.089v-.088l.088-.088v-.265l.088-.088v-.176zm3.161-3.176v3.176H9.923v-3.176l.878-1.412 2.283 1.412zm-3.161 0v-.97l.878-.442-.878 1.412zm3.776-6.175h3.161v.882l-.088.353v.264l-.088.353-.087.265-.088.264-.088.265-.088.353-.088.265-.088.264-.175.265-.088.265-.175.264-.176.177-.088.264-.176.265-.175.176-.176.265-.263.177-.176.264-.176.177-.263.176-.176.176-.263.177-.176.176-.263.177-.264.176-.175.177-.264.088-.263.176-1.405-2.823.088-.088.175-.088.176-.088.176-.177.175-.088.088-.088.176-.088.088-.177.175-.088.088-.088.176-.177.087-.176.088-.088.176-.177.088-.088.088-.177.087-.176.088-.176.088-.089.088-.176.088-.176v-.177l.087-.176.088-.177v-.176l.088-.177v-.176l.088-.177V65.804zM16.86 8.639v57.165h-3.161V8.639h3.161zM6.85 1.758h3.16L8.43.17h.44l.438.088h.44l.438.088.351.089.44.088.35.176.44.177.351.088.351.265.352.176.35.176.352.265.264.265.35.264.264.265.264.353.263.265.264.352.263.265.176.353.263.353.176.353.175.44.176.354.088.44.088.354.087.44.088.442.088.353v.882h-3.161v-.794l-.088-.265-.088-.264V7.05l-.088-.177-.088-.264-.175-.265-.088-.176-.088-.265-.175-.176-.176-.265-.088-.176-.175-.177-.176-.176-.176-.177-.263-.176-.176-.177-.175-.176-.264-.088-.175-.177-.264-.088-.175-.088-.264-.088-.263-.089-.264-.088-.263-.088H9.22l-.263-.088H8.43L6.85 1.758zm1.58 1.588H6.85V1.758l1.58 1.588zm1.58-1.588H6.85L8.43.17l1.58 1.588zM8.43.17h1.58v1.588L8.43.17zM40.218 8.11h3.688V4.492h2.898v3.616h3.6v2.647h-3.6v3.705h-2.898v-3.705h-3.688V8.109zM62.26 4.316h-5.182l-.614 2.558c.35-.088.702-.088 1.053-.088 1.669 0 3.162.618 4.04 1.5 1.23 1.323 1.405 2.911 1.405 3.793 0 1.676-.527 3-1.58 4.146-1.318 1.235-2.635 1.588-4.304 1.588-.878 0-2.195-.088-3.424-.705-.615-.265-1.318-.794-1.844-1.324l.965-2.646c.44.617.966 1.058 1.669 1.411.703.441 1.493.618 2.283.618 1.23 0 1.932-.53 2.371-.97.44-.442.79-1.236.79-2.294 0-.882-.263-1.588-.878-2.117-.79-.706-1.756-.794-2.459-.794-1.141 0-2.195.264-3.336.97l1.844-8.204h7.2v2.558z"/>
	<path fill="#fff" d="M11.152 14.197h4.128v3.175h-4.128v-3.175zM11.152 27.87h4.128v3.264h-4.128V27.87zM11.152 41.632h4.128v3.176h-4.128v-3.176zM11.152 55.306h4.128v3.264h-4.128v-3.264zM6.937 7.757h8.342v3.175H6.937V7.757zM6.937 62.187h8.342v3.175H6.937v-3.175zM6.937 34.928h8.342v3.175H6.937v-3.175zM6.937 48.601h8.342v3.176H6.937v-3.176zM6.937 21.342h8.342v3.176H6.937v-3.176zM28.978 10.932h-10.01V7.757h10.01v3.175zM28.978 65.362h-10.01v-3.175h10.01v3.175zM68.757 9.786c0 4.058 1.669 5.557 2.986 5.557 1.317 0 2.986-1.5 2.986-5.557 0-4.147-1.669-5.646-2.986-5.646-1.317 0-2.986 1.5-2.986 5.646zm-3.073 0c0-5.47 2.898-8.205 6.06-8.205 3.073 0 5.97 2.735 5.97 8.205 0 5.38-2.897 8.204-5.97 8.204-3.162 0-6.06-2.823-6.06-8.204zM40.218 62.187h3.688V58.57h2.898v3.617h3.6v2.646h-3.6v3.705h-2.898v-3.705h-3.688v-2.646zM56.99 71.626h3.074V55.394H54.62v2.735h2.37v13.497z"/>
</svg>
